X:1
T:London Bridge
O:Traditional
M:2/4
L:1/8
Q:1/4=60
K:D
AB AG | FGA2 | EFG2 | FGA2 | 
w: Lon-don Bridge is fal-ling down, Fal-ling down, fal-ling down.
AB AG | FG A2 | E2 A2 | F D3 |]
w: Lon-don Bridge is fal-ling down, My fair la-dy.
